X:1
T:Gypsy Laddie  " "
M:C
L:1/8
Q:80
C:or Munroe's Dance
S:Reel
K:HP
[| d2 | \
{gcd}ce{A}e3/2d/2{gcd}cB{A}A3/2d/2 | \
{gcd}ca{g}a3/2e/2{g}f{e}f{g}e3/2f/2 |
a{g}a{g}a3/2e/2{g}f{e}f{g}e3/2d/2 | \
{gcd}ce{A}e3/2d/2{gcd}cB{A}A2 | |: \
{gcd}ce{g}e3/2d/2cB{A}A3/2d/2 |
{g}ca{g}a3/2e/2{g}f{e}f{g}e3/2f/2 | \
a{g}a{g}a3/2e/2{g}f{e}f{g}e3/2d/2 | \
{g}ce{A}e3/2d/2{g}cB{A}A2 :|
{g}ce{A}e2{g}cB{A}A2 | \
{g}f/2af/2{g}ec{g}Bc/2B/2{A}A2 | \
{g}ce{A}e2{g}cB{A}A2 |
{g}f/2af/2{g}ec{g}Bc/2B/2{A}A2 |
